X:1
T:Title
%%score { ( 1 3 ) | ( 2 4 ) }
L:1/8
M:6/8
K:Db
V:1 treble nm="Grand Piano"
V:3 treble 
V:2 bass 
V:4 bass 
V:1
 z3 z2[Q:1/4=81] F | F_F=F GF_F | FDE F2 F | [G,CF][G,CE][G,C=D] [G,CE][G,CF][G,CE] | %4
 [F,D][K:treble][A,DF][GB] [FA]2 [FA] | [FA][_F=G][=FA] [Fd][Gc][Ad] | edc B2 B | %7
 [DFA][A,EG][A,DF] [A,DF][A,CF]>[K:bass][G,CE] |[M:5/8] [F,D]-[F,D]- [F,D]3 | %9
[M:1/8][K:treble] [A,FA] |[M:3/4] [Fd]>[Fc] [Fd][Gc]- [Gc]/[GA]/[Ac] | B6 | %12
 c>B A[CEG]- [CEG]/[CFA]/[CGB] | F6 | EF G[EG] [DF][CE] | [DF][EG] [FA][GB] [Gc][Fd] | %16
 [DFA][A,DF] [B,DG][A,DF] [A,CF]>[K:bass][G,CE] |[M:5/8] D-D- D3 |] %18
V:2
 z3 z2 [D,A,D] | [D,A,D][D,=G,D][D,A,D] [D,B,D][D,A,D][D,G,D] | %2
 [D,A,D][F,A,][A,C] [D,A,D]2 [D,A,D] | A,,A,,A,, A,,A,,A,, | D,D,[D,D] [D,D]2 [D,D] | %5
 [D,D][D,B,][D,A,] [D,A,][D,A,][F,_C] | [G,B,G][G,B,G][G,CG] [G,DG]2 [G,DG] | D,D,D, A,,A,,>A,, | %8
[M:5/8] D,-D,- D,3 |[M:1/8] D, |[M:3/4] [D,A,]>[D,A,] [D,A,][E,A,]- [E,A,]/[E,C]/[F,A,] | %11
 [DG]2 z2 z2[K:treble] | [A,EG]>[A,DG] [A,CF][K:bass]A,,- A,,/A,,/A,, | z2 A, A,2 [D,A,D] | %14
 [A,C][A,D] [A,E][A,,A,] [A,,A,][A,,A,] | [D,A,][D,A,] [D,D][G,D] [E,A,][D,A,] | %16
 D,D, G,,A,, A,,>A,, |[M:5/8] z F,G, F,2 |] %18
V:3
 x6 | x6 | x6 | x6 | x[K:treble] x5 | x6 | x6 | x11/2[K:bass] x/ |[M:5/8] x5 |[M:1/8][K:treble] x | %10
[M:3/4] x6 | z2 G G2 B | x6 | D2 D D2 F | x6 | x6 | x11/2[K:bass] x/ |[M:5/8] F,A,B, A,2 |] %18
V:4
 x6 | x6 | x6 | x6 | x6 | x6 | x6 | x6 |[M:5/8] x5 |[M:1/8] x |[M:3/4] x6 | %11
 G,2- [G,-D] [G,D]2[K:treble] [G,EG] | x3[K:bass] x3 | D,6 | x6 | x6 | x6 |[M:5/8] D,-D,- D,3 |] %18

